X: 1615
T: Joe Yates Mazurka No 2
B: australian traditional tunes wiki
M:3/4
L:1/8
R: Varsovienne
Q: 1/4=100
K:G
V:1 
Bc |"G" d2 g2 Bc | d2 g2 Bc | (3ddd d2 F2 |"D" A4 AB |"D7" c2 f2 AB |c2 f4 | AB cd ed |"G" B4|
"G" d2 g2 Bc | d2 g2 Bc | (3ddd d2 F2 |"D" A4 AB |"D7" c2 f2 AB |c2 f4 | AB cd ef |"G" g4 z2 ||
|:"D" (3fff f2 f2 |  (3fgg g2 f2 | (3fee e2 ^d2 |"A" e4 Ac |"A7" (3eee e2 e2 | (3eff f2 e2 |  e2 f2 c2 |"D" d4 z2:|
% abcbook-tune_id 6342d53aa50c1fad6c58a246


% abcbook-boost 0
% abcbook-tablature 
% abcbook-transpose 
% abcbook-lastupdated 1665324374111
% abcbook-soundfonts 
% abcbook-repeats 1
% NFF Book 2017
% Bush Traditions recording played by Ingrid Wangel

